icons/Debian-Dark.svg

<svg width="256" height="256" viewBox="0 0 256 256" fill="none" xmlns="http://www.w3.org/2000/svg">
<g clip-path="url(#clip0_33_879)">
<path d="M196 0H60C26.8629 0 0 26.8629 0 60V196C0 229.137 26.8629 256 60 256H196C229.137 256 256 229.137 256 196V60C256 26.8629 229.137 0 196 0Z" fill="#242938"/>
<g clip-path="url(#clip1_33_879)">
<path d="M215 127.5C215 175.825 175.825 215 127.5 215C79.1751 215 40 175.825 40 127.5C40 79.1751 79.1751 40 127.5 40C175.825 40 215 79.1751 215 127.5Z" fill="#D70751"/>
<path d="M163.86 119.01C163.978 122.192 162.931 123.738 161.984 126.473L160.282 127.319C158.889 130.025 160.42 129.037 159.423 131.187C157.247 133.119 152.83 137.231 151.415 137.608C150.381 137.585 152.115 136.388 152.341 135.921C149.432 137.917 150.006 138.918 145.556 140.134L145.427 139.843C134.456 145.006 119.216 134.776 119.416 120.821C119.3 121.706 119.083 121.485 118.84 121.841C118.274 114.662 122.157 107.451 128.705 104.502C135.109 101.333 142.618 102.632 147.202 106.911C144.684 103.611 139.668 100.111 133.727 100.435C127.904 100.53 122.456 104.23 120.638 108.248C117.656 110.124 117.309 115.486 116.01 116.469C114.26 129.323 119.299 134.874 127.824 141.407C129.162 142.311 128.201 142.449 128.38 143.137C125.548 141.812 122.956 139.81 120.823 137.359C121.955 139.014 123.176 140.624 124.755 141.888C122.083 140.986 118.515 135.418 117.476 135.191C122.079 143.433 136.149 149.645 143.52 146.562C140.109 146.689 135.777 146.632 131.947 145.216C130.334 144.388 128.149 142.674 128.54 142.354C138.597 146.109 148.983 145.196 157.683 138.223C159.898 136.498 162.316 133.565 163.016 133.525C161.963 135.108 163.196 134.286 162.387 135.684C164.59 132.126 161.427 134.235 164.666 129.541L165.862 131.187C165.414 128.232 169.53 124.647 169.111 119.977C170.055 118.549 170.163 121.515 169.162 124.8C170.552 121.156 169.53 120.57 169.885 117.562C170.268 118.573 170.778 119.646 171.038 120.715C170.131 117.192 171.963 114.784 172.419 112.736C171.969 112.539 171.022 114.293 170.803 110.134C170.836 108.327 171.308 109.187 171.488 108.742C171.135 108.537 170.204 107.152 169.639 104.496C170.046 103.87 170.735 106.114 171.293 106.205C170.934 104.094 170.316 102.483 170.289 100.862C168.656 97.4509 169.711 101.318 168.389 99.3974C166.65 93.9792 169.83 98.1397 170.046 95.6795C172.677 99.4922 174.177 105.406 174.869 107.854C174.342 104.868 173.492 101.975 172.453 99.1761C173.255 99.5146 171.164 93.0349 173.495 97.3258C171.007 88.1791 162.856 79.6317 155.356 75.6227C156.271 76.4617 157.429 77.5153 157.015 77.6812C153.283 75.462 153.939 75.2869 153.404 74.3492C150.368 73.1125 150.166 74.4506 148.157 74.3519C142.428 71.3122 141.324 71.6349 136.052 69.7331L136.292 70.8552C132.498 69.5909 131.871 71.332 127.771 70.858C127.522 70.6644 129.085 70.1521 130.373 69.9664C126.704 70.451 126.876 69.242 123.285 70.0994C124.169 69.4791 125.107 69.0668 126.05 68.54C123.059 68.7218 118.906 70.2811 120.188 68.8614C115.308 71.0397 106.641 74.0965 101.777 78.6573L101.625 77.6353C99.3961 80.3102 91.9062 85.6243 91.3096 89.092L90.713 89.2303C89.5554 91.1939 88.8034 93.4184 87.8841 95.4374C86.3682 98.0226 85.661 96.433 85.877 96.8387C82.894 102.886 81.4097 107.967 80.1309 112.137C81.0423 113.5 80.1534 120.345 80.4969 125.822C79.0008 152.879 99.4856 179.147 121.878 185.21C125.159 186.386 130.039 186.344 134.19 186.46C129.294 185.059 128.661 185.718 123.889 184.055C120.447 182.433 119.694 180.582 117.255 178.466L118.22 180.171C113.439 178.479 115.44 178.077 111.549 176.846L112.581 175.501C111.031 175.383 108.476 172.891 107.778 171.507L106.081 171.574C104.045 169.064 102.959 167.25 103.039 165.845L102.491 166.822C101.871 165.757 94.996 157.395 98.5624 159.341C97.9 158.738 97.0189 158.358 96.0641 156.62L96.7898 155.792C95.0763 153.583 93.6315 150.753 93.7422 149.81C94.6575 151.046 95.2923 151.277 95.9219 151.489C91.5875 140.737 91.3438 150.898 88.0632 140.545L88.756 140.49C88.2252 139.685 87.8999 138.817 87.4732 137.962L87.7761 134.953C84.6574 131.35 86.9042 119.616 87.356 113.183C87.6655 110.567 89.9597 107.782 91.7021 103.413L90.6407 103.231C92.6714 99.6913 102.233 89.009 106.663 89.5569C108.809 86.8623 106.237 89.5464 105.817 88.8694C110.53 83.9925 112.012 85.4241 115.192 84.5457C118.621 82.5109 112.249 85.3411 113.874 83.77C119.805 82.2567 118.075 80.3273 125.81 79.5595C126.627 80.0231 123.917 80.2759 123.238 80.8778C128.177 78.4598 138.87 79.0116 145.818 82.2185C153.874 85.9865 162.931 97.1192 163.29 107.593L163.697 107.703C163.491 111.867 164.334 116.683 162.871 121.106L163.86 119.01Z" fill="white"/>
</g>
</g>
<defs>
<clipPath id="clip0_33_879">
<rect width="256" height="256" fill="white"/>
</clipPath>
<clipPath id="clip1_33_879">
<rect width="175" height="175" fill="white" transform="translate(40 40)"/>
</clipPath>
</defs>
</svg>

<svg xmlns="http://www.w3.org/2000/svg" width="256" height="256" fill="none" viewBox="0 0 256 256"><g clip-path="url(#a)"><path fill="#242938" d="M196 0H60A60 60 0 0 0 0 60v136a60 60 0 0 0 60 60h136a60 60 0 0 0 60-60V60a60 60 0 0 0-60-60"/><g clip-path="url(#b)"><path fill="#D70751" d="M215 127.5a87.5 87.5 0 1 1-175 0 87.5 87.5 0 0 1 175 0"/><path fill="#fff" d="M163.86 119.01c.12 3.18-.93 4.73-1.88 7.46l-1.7.85c-1.4 2.7.14 1.72-.86 3.87-2.17 1.93-6.59 6.04-8 6.42-1.04-.03.7-1.22.92-1.69-2.9 2-2.33 3-6.78 4.21l-.13-.29c-10.97 5.17-26.21-5.06-26.01-19.02-.12.89-.34.67-.58 1.02-.57-7.18 3.32-14.39 9.87-17.34 6.4-3.17 13.9-1.87 18.5 2.41-2.53-3.3-7.54-6.8-13.48-6.47-5.83.09-11.27 3.79-13.1 7.8-2.97 1.88-3.32 7.25-4.62 8.23-1.75 12.85 3.29 18.4 11.81 24.94 1.34.9.38 1.04.56 1.73a23 23 0 0 1-7.56-5.78 20 20 0 0 0 3.94 4.53c-2.68-.9-6.25-6.47-7.28-6.7 4.6 8.24 18.67 14.46 26.04 11.37-3.41.13-7.74.07-11.57-1.34-1.62-.83-3.8-2.55-3.41-2.87 10.06 3.76 20.44 2.85 29.14-4.13 2.22-1.72 4.64-4.66 5.34-4.7-1.06 1.59.18.77-.63 2.16 2.2-3.55-.96-1.44 2.28-6.14l1.2 1.65c-.46-2.96 3.66-6.54 3.24-11.21.94-1.43 1.05 1.53.05 4.82 1.4-3.64.37-4.23.72-7.24.39 1.01.9 2.09 1.16 3.16-.9-3.53.92-5.94 1.38-7.98-.45-.2-1.4 1.55-1.62-2.6.04-1.81.5-.95.69-1.4-.36-.2-1.29-1.59-1.85-4.24.4-.63 1.1 1.61 1.65 1.7-.36-2.1-.97-3.72-1-5.34-1.63-3.4-.58.46-1.9-1.46-1.74-5.42 1.44-1.26 1.66-3.72 2.63 3.81 4.13 9.73 4.82 12.17a50 50 0 0 0-2.42-8.67c.8.33-1.29-6.15 1.05-1.85-2.5-9.15-10.64-17.7-18.14-21.7.91.83 2.07 1.89 1.65 2.05-3.73-2.22-3.07-2.4-3.6-3.33-3.04-1.24-3.24.1-5.25 0-5.73-3.04-6.84-2.72-12.1-4.62l.23 1.13c-3.8-1.27-4.42.47-8.52 0-.25-.2 1.32-.7 2.6-.9-3.67.5-3.5-.72-7.09.14.89-.62 1.83-1.03 2.77-1.56-3 .18-7.14 1.74-5.86.32-4.88 2.18-13.55 5.24-18.41 9.8l-.16-1.02c-2.22 2.67-9.71 7.98-10.31 11.45l-.6.14c-1.15 1.96-1.9 4.19-2.83 6.2-1.51 2.6-2.22 1-2 1.4-2.99 6.06-4.47 11.14-5.75 15.3.91 1.37.02 8.22.37 13.7-1.5 27.05 18.99 53.32 41.38 59.38 3.28 1.18 8.16 1.13 12.31 1.25-4.9-1.4-5.53-.74-10.3-2.4-3.44-1.63-4.2-3.48-6.64-5.6l.97 1.71c-4.78-1.7-2.78-2.1-6.67-3.32l1.03-1.35c-1.55-.12-4.1-2.6-4.8-4l-1.7.07c-2.03-2.5-3.12-4.32-3.04-5.72l-.55.97c-.62-1.06-7.5-9.42-3.93-7.48-.66-.6-1.54-.98-2.5-2.72l.73-.83c-1.71-2.2-3.16-5.04-3.05-5.98.92 1.24 1.55 1.47 2.18 1.68-4.33-10.75-4.58-.6-7.86-10.95l.7-.05c-.53-.8-.86-1.67-1.29-2.53l.3-3c-3.11-3.61-.87-15.34-.41-21.78.3-2.61 2.6-5.4 4.34-9.77l-1.06-.18c2.03-3.54 11.6-14.22 16.02-13.67 2.15-2.7-.42-.01-.84-.7 4.71-4.87 6.2-3.44 9.37-4.31 3.43-2.04-2.94.8-1.32-.78 5.94-1.51 4.2-3.44 11.94-4.21.82.46-1.9.72-2.57 1.32 4.94-2.42 15.63-1.87 22.58 1.34 8.05 3.77 17.11 14.9 17.47 25.37l.4.11c-.2 4.17.64 8.98-.82 13.4z"/></g></g><defs><clipPath id="a"><path fill="#fff" d="M0 0h256v256H0z"/></clipPath><clipPath id="b"><path fill="#fff" d="M40 40h175v175H40z"/></clipPath></defs></svg>
